usr/share/icons/biglinux-icons-material/24/actions/gnumeric-autofilter-delete.svg

<svg xmlns="http://www.w3.org/2000/svg" viewBox="0 0 24 24">
  <defs id="defs3051">
    <style type="text/css" id="current-color-scheme">
      .ColorScheme-Text {
        color:#dedede;
      }
      </style>
  </defs>
 <path style="fill:currentColor;fill-opacity:1;stroke:none" 
     d="M 6 4 L 5 5 L 5 6 L 5 6.3046875 L 10 13.367188 L 10 17 L 10 17.039062 L 13 19.265625 L 13 18.019531 L 11 16.535156 L 11 14 L 11 13.048828 L 11 13 L 10.964844 13 L 6 5.9882812 L 6 5 L 18 5 L 18 5.9882812 L 13.035156 13 L 14.259766 13 L 19 6.3046875 L 19 5 L 18 4 L 6 4 z M 7 6 L 9 9 L 9 7 L 11 6 L 7 6 z "
     class="ColorScheme-Text"
     />
 <path 
     style="fill:#da4453" 
     d="M 14.990234 14 L 14 14.990234 L 16.009766 17 L 14 19.009766 L 14.990234 20 L 17 17.990234 L 19.009766 20 L 20 19.009766 L 17.990234 17 L 20 14.990234 L 19.009766 14 L 17 16.009766 L 14.990234 14 z "
     />
</svg>

<svg xmlns="http://www.w3.org/2000/svg" viewBox="0 0 24 24"><path d="M6 4 5 5v1.305l5 7.062v3.673l3 2.226V18.02l-2-1.485V13h-.035L6 5.988V5h12v.988L13.035 13h1.225L19 6.305V5l-1-1H6zm1 2 2 3V7l2-1H7z" style="fill:currentColor;fill-opacity:1;stroke:none;color:#dedede"/><path d="m14.99 14-.99.99L16.01 17 14 19.01l.99.99L17 17.99 19.01 20l.99-.99L17.99 17 20 14.99l-.99-.99L17 16.01 14.99 14z" style="fill:#da4453"/></svg>
